!!!OTL: 67. Gas-nign
!!!Genre:	Gas-nign
!!!Mode:	Freygish
!!!Listening/dance:	listening
!!!One_Mode:	yes
**kern
*I"P1
*clefG2
*k[b-e-a-]
*G:frey
*M3/4
*>A
!LO:TX:a:i:t=G-freygish
=1
2g
4g
=2
2g
4g
=3
4cc
4bn
(8qdd/
4cc)
=4
2bn
4g
=5
4cc
4cc
4cc
=6
4cc
(8qdd/
8ccL)
8bn
8cc
8ee-J
=7
2.dd
=8
2.gg
=9
2g
4g
=10
2g
4g
=11
4cc
4bn
4cc
=12
2bn
4g
=13
4a-
4a-
4a-
=14
(16a-LL
16bnJ
8a-J
4g)
4f
=15
2.g
=16
2.gg
=17:|!|:
*>bM
*c:
*>B
!LO:TX:a:i:t=C-minor
4ff
4gg
4aa-
=18
(16ggLL
16aa-J)
8gg'J
4ff
4ee-
=19
(16ffLL
16ggJ)
8ff'J
4ee-
4dd
=20
(8qff/
8.ee-L)
16ddJk
2cc
=21
4bn
4b
4b
=22
4cc
4cc
4ee-
=23
2.dd
*>B1
=24
2.gg
*>B2
=25:|!
2gg
4g
*>eM
*G:frey
!LO:TX:a:i:t=G-freygish
=26!|:
*>C
4f
4bn
4cc
=27
2dd
4cc
=28
4bn
(8qdd/
4cc)
4a-
=29
2g
4f
=30
4f
4bn
4cc
=31
(8ddL
16ee-L
16ddJJ)
4cc
4ee-
=32
2.dd
=33
2.gg
=34
4f
4bn
(8qdd/
4cc)
=35
2dd
4cc
=36
4bn
(8qdd/
4cc)
4a-
=37
2g
4f
=38
(8.bntL
16gJk)
(8.btL
16gJk)
(8.btL
16gJk)
=39
4.bn
8a-
8gL
8fJ
=40
(8.gL
16a-Jk)
(8.gL
16a-Jk)
(8.gL
16a-Jk)
=41
2.g
=:|!
*-
